X:1
T: Miss Fordyce of Ayton's Reel
C:
R:Reel
Q: 232
K:Em
M:4/4
L:1/8
|:B|E2 BG EB, GE|FD AF dA FD|GE BG EB, GE|AB GF GE EB|
E2 BG EB, GE|FD AF dA FD|EG FA GB Ac|BA GF GE Ef|
eb ge Be ge|d1/2e1/2f1/2g1/2 af de fd|eb ge Be ge|^df Ba ge ef|
eb ge Be ge|d1/2e1/2f1/2g1/2 af de fd|eg fa gb fa|ge f^d eE E:|
